public/static/home2/notice.svg

<svg width="22" height="22" viewBox="0 0 22 22" fill="none" xmlns="http://www.w3.org/2000/svg">
<g id="Frame">
<path id="Vector" d="M18.4684 17.6188H4.82281C4.43119 17.6188 4.06673 17.4241 3.84715 17.1004C3.62758 16.7744 3.58456 16.3647 3.73171 16.0002L4.84544 13.2498V9.07105C4.84544 8.19047 5.01975 7.33479 5.36383 6.52665C5.69433 5.74794 6.16744 5.04845 6.76959 4.44631C7.37173 3.84417 8.07121 3.37105 8.84993 3.04055C9.65807 2.69647 10.5137 2.52217 11.3943 2.52217H11.4102C12.2907 2.52217 13.1464 2.69647 13.9546 3.04055C14.7333 3.37105 15.4328 3.84417 16.0349 4.44631C16.637 5.04845 17.1102 5.74794 17.4407 6.52665C17.7847 7.33479 17.959 8.19047 17.959 9.07105V13.1978L19.487 15.8553C19.6998 16.2243 19.6976 16.6635 19.4848 17.0325C19.2743 17.3992 18.8917 17.6188 18.4684 17.6188ZM5.22575 16.17H17.9975L16.5103 13.5849V9.07105C16.5103 7.71509 15.9783 6.4361 15.0117 5.4695C14.0451 4.5029 12.7661 3.97093 11.4102 3.97093H11.3943C10.0384 3.97093 8.75938 4.5029 7.79278 5.4695C6.82618 6.4361 6.29421 7.71509 6.29421 9.07105V13.5328L5.22575 16.17ZM9.60147 4.17467C9.29587 4.17467 9.02649 3.95509 8.97217 3.64496C8.94727 3.50461 8.93595 3.362 8.93595 3.22165C8.93595 1.87475 10.0316 0.776855 11.3807 0.776855C12.7299 0.776855 13.8255 1.87249 13.8255 3.22165C13.8255 3.362 13.812 3.50461 13.7893 3.64496C13.7282 3.98904 13.4022 4.2222 13.0559 4.16561L11.7701 3.95735C11.512 3.91434 11.2494 3.91434 10.9891 3.95735L9.70334 4.16561C9.66938 4.1724 9.63543 4.17467 9.60147 4.17467ZM11.3785 2.64667C11.5777 2.64667 11.7769 2.66252 11.9738 2.69421L12.4537 2.77117C12.2772 2.35239 11.8629 2.05584 11.3785 2.05584C10.894 2.05584 10.4798 2.35239 10.3032 2.77117L10.7831 2.69421C10.9823 2.66252 11.1815 2.64667 11.3785 2.64667ZM14.6993 20.3194H8.33154C7.93313 20.3194 7.60716 19.9934 7.60716 19.595C7.60716 19.1966 7.93313 18.8706 8.33154 18.8706H14.6993C15.0977 18.8706 15.4237 19.1966 15.4237 19.595C15.4237 19.9934 15.0977 20.3194 14.6993 20.3194Z" fill="white"/>
<circle id="Ellipse 3926" cx="16.5" cy="4.5" r="2.5" fill="#CC3639"/>
</g>
</svg>

<svg width="22" height="22" viewBox="0 0 22 22" fill="none" xmlns="http://www.w3.org/2000/svg"><path d="M18.468 17.619H4.823A1.179 1.179 0 0 1 3.732 16l1.113-2.75V9.07A6.547 6.547 0 0 1 6.77 4.446a6.548 6.548 0 0 1 4.625-1.924h.016a6.547 6.547 0 0 1 4.625 1.924 6.548 6.548 0 0 1 1.924 4.625v4.127l1.528 2.657c.213.37.21.808-.002 1.177-.21.367-.593.587-1.017.587zM5.226 16.17h12.771l-1.487-2.585V9.07a5.063 5.063 0 0 0-1.498-3.601 5.063 5.063 0 0 0-3.602-1.5h-.016a5.063 5.063 0 0 0-3.601 1.5A5.063 5.063 0 0 0 6.294 9.07v4.462L5.226 16.17zM9.6 4.175a.64.64 0 0 1-.629-.53 2.448 2.448 0 0 1 2.41-2.868 2.446 2.446 0 0 1 2.408 2.868.64.64 0 0 1-.733.52l-1.286-.208a2.38 2.38 0 0 0-.78 0l-1.287.209a.517.517 0 0 1-.102.009zm1.777-1.528c.2 0 .399.016.596.047l.48.077a1.168 1.168 0 0 0-1.075-.715c-.485 0-.9.296-1.076.715l.48-.077c.2-.031.399-.047.596-.047zM14.7 20.319H8.332a.727.727 0 0 1-.725-.724c0-.398.326-.724.725-.724h6.367c.399 0 .725.326.725.724a.727.727 0 0 1-.725.724z" fill="#fff"/><circle cx="16.5" cy="4.5" r="2.5" fill="#CC3639"/></svg>
